Sources/FrostedUI/Resources/Icons.xcassets/instagramSize20.imageset/instagram-size-20.svg

<svg
  width="20"
  height="20"
  viewBox="0 0 20 20"
  fill="none"
  xmlns="http://www.w3.org/2000/svg"
  data-fui-icon="true"
>
  <path
    d="M10 3.50979C12.1138 3.50979 12.3642 3.5177 13.1991 3.55584C13.7009 3.5619 14.1981 3.65417 14.6687 3.82861C15.0126 3.95553 15.3237 4.15793 15.5791 4.42092C15.8421 4.67631 16.0445 4.98741 16.1714 5.33134C16.3458 5.80197 16.4381 6.29908 16.4442 6.80096C16.4823 7.6358 16.4903 7.88626 16.4903 10C16.4903 12.1138 16.4823 12.3642 16.4442 13.1991C16.4381 13.7009 16.3458 14.1981 16.1714 14.6687C16.0397 15.0102 15.8379 15.3203 15.5791 15.5791C15.3203 15.8379 15.0102 16.0397 14.6687 16.1714C14.1981 16.3458 13.7009 16.4381 13.1991 16.4442C12.3642 16.4823 12.1138 16.4903 10 16.4903C7.88626 16.4903 7.6358 16.4823 6.80096 16.4442C6.29884 16.4382 5.80148 16.3459 5.33062 16.1714C4.98695 16.0444 4.67611 15.842 4.42092 15.5791C4.15793 15.3237 3.95553 15.0126 3.82861 14.6687C3.65417 14.1981 3.5619 13.7009 3.55584 13.1991C3.5177 12.3642 3.50979 12.1138 3.50979 10C3.50979 7.88626 3.5177 7.6358 3.55584 6.80096C3.5619 6.29908 3.65417 5.80197 3.82861 5.33134C3.95553 4.98741 4.15793 4.67631 4.42092 4.42092C4.67631 4.15793 4.98741 3.95553 5.33134 3.82861C5.80197 3.65417 6.29908 3.5619 6.80096 3.55584C7.6358 3.5177 7.88626 3.50979 10 3.50979ZM10 2.08334C7.85028 2.08334 7.58039 2.0927 6.73619 2.13084C6.07947 2.14394 5.42974 2.26829 4.81459 2.49861C4.28609 2.69759 3.80739 3.00952 3.4119 3.41263C3.00914 3.80798 2.69747 4.28642 2.49861 4.81459C2.26854 5.42978 2.14444 6.07951 2.13156 6.73619C2.09198 7.58039 2.08334 7.85028 2.08334 10C2.08334 12.1498 2.0927 12.4196 2.13084 13.2638C2.14394 13.9205 2.26829 14.5703 2.49861 15.1854C2.69759 15.7139 3.00952 16.1926 3.41263 16.5881C3.80798 16.9908 4.28642 17.3025 4.81459 17.5014C5.42978 17.7315 6.07951 17.8556 6.73619 17.8684C7.58039 17.908 7.85028 17.9167 10 17.9167C12.1498 17.9167 12.4196 17.9073 13.2638 17.8692C13.9205 17.8561 14.5703 17.7318 15.1854 17.5014C15.7115 17.298 16.1893 16.9869 16.5881 16.5881C16.9869 16.1893 17.298 15.7115 17.5014 15.1854C17.7315 14.5703 17.8556 13.9205 17.8684 13.2638C17.908 12.4196 17.9167 12.1498 17.9167 10C17.9167 7.85028 17.9073 7.58039 17.8692 6.73619C17.8561 6.07947 17.7318 5.42974 17.5014 4.81459C17.3024 4.28609 16.9905 3.80739 16.5874 3.4119C16.192 3.00914 15.7136 2.69747 15.1854 2.49861C14.5703 2.26854 13.9205 2.14444 13.2638 2.13156C12.4196 2.09198 12.1498 2.08334 10 2.08334ZM10 5.93444C9.19593 5.93444 8.40984 6.17288 7.7413 6.61961C7.07272 7.06634 6.55163 7.7013 6.24392 8.44418C5.9362 9.18709 5.85569 10.0045 6.01256 10.7932C6.16944 11.5818 6.55664 12.3063 7.12522 12.8748C7.6938 13.4433 8.41818 13.8306 9.20684 13.9874C9.99551 14.1443 10.8129 14.0638 11.5558 13.7561C12.2988 13.4484 12.9337 12.9273 13.3804 12.2588C13.8272 11.5902 14.0656 10.8041 14.0656 10C14.0656 8.92176 13.6373 7.88766 12.8748 7.12522C12.1123 6.36278 11.0783 5.93444 10 5.93444ZM10 12.6392C9.47801 12.6392 8.96776 12.4843 8.53376 12.1943C8.09979 11.9043 7.76153 11.4922 7.56178 11.0099C7.36203 10.5278 7.30976 9.99709 7.41159 9.48518C7.51343 8.97318 7.76478 8.50293 8.13387 8.13387C8.50293 7.76478 8.97318 7.51343 9.48518 7.41159C9.99709 7.30976 10.5278 7.36203 11.0099 7.56178C11.4922 7.76153 11.9043 8.09979 12.1943 8.53376C12.4843 8.96776 12.6392 9.47801 12.6392 10C12.6392 10.6999 12.3611 11.3713 11.8662 11.8662C11.3713 12.3611 10.6999 12.6392 10 12.6392ZM14.2261 4.82395C14.0382 4.82395 13.8545 4.87967 13.6983 4.98405C13.5421 5.08844 13.4203 5.23681 13.3484 5.4104C13.2765 5.58399 13.2577 5.775 13.2943 5.95929C13.331 6.14357 13.4214 6.31284 13.5543 6.4457C13.6872 6.57856 13.8564 6.66904 14.0408 6.70569C14.225 6.74235 14.416 6.72354 14.5896 6.65163C14.7632 6.57973 14.9116 6.45797 15.0159 6.30174C15.1203 6.14552 15.1761 5.96184 15.1761 5.77395C15.1761 5.52199 15.076 5.28036 14.8978 5.1022C14.7197 4.92404 14.478 4.82395 14.2261 4.82395Z"
    fill="currentColor"
  />
</svg>

<svg xmlns="http://www.w3.org/2000/svg" width="20" height="20" fill="none" data-fui-icon="true" viewBox="0 0 20 20"><path fill="currentColor" d="M10 3.51c2.114 0 2.364.008 3.2.046a4.4 4.4 0 0 1 1.469.273c.344.127.655.329.91.592.263.255.465.566.592.91.175.471.267.968.273 1.47.038.835.046 1.085.046 3.199s-.008 2.364-.046 3.2a4.4 4.4 0 0 1-.273 1.469 2.62 2.62 0 0 1-1.502 1.502c-.47.175-.968.267-1.47.273-.835.038-1.085.046-3.199.046s-2.364-.008-3.199-.046c-.502-.006-1-.098-1.47-.273a2.45 2.45 0 0 1-.91-.592 2.45 2.45 0 0 1-.592-.91 4.4 4.4 0 0 1-.273-1.47c-.038-.835-.046-1.085-.046-3.199s.008-2.364.046-3.199a4.4 4.4 0 0 1 .273-1.47c.127-.344.329-.655.592-.91.255-.263.566-.465.91-.592a4.4 4.4 0 0 1 1.47-.273C7.636 3.518 7.886 3.51 10 3.51m0-1.427c-2.15 0-2.42.01-3.264.048a5.8 5.8 0 0 0-1.921.368 3.9 3.9 0 0 0-1.403.914 3.9 3.9 0 0 0-.913 1.402 5.8 5.8 0 0 0-.367 1.921c-.04.844-.049 1.114-.049 3.264s.01 2.42.048 3.264a5.8 5.8 0 0 0 .368 1.921 3.9 3.9 0 0 0 .914 1.403c.395.403.873.714 1.402.913.615.23 1.265.355 1.921.367.844.04 1.114.049 3.264.049s2.42-.01 3.264-.048a5.8 5.8 0 0 0 1.921-.368 4.05 4.05 0 0 0 2.316-2.316c.23-.615.355-1.264.367-1.921.04-.844.049-1.114.049-3.264s-.01-2.42-.048-3.264a5.8 5.8 0 0 0-.368-1.921 3.9 3.9 0 0 0-.914-1.403 3.9 3.9 0 0 0-1.402-.913 5.8 5.8 0 0 0-1.921-.367c-.844-.04-1.114-.049-3.264-.049m0 3.851a4.066 4.066 0 1 0 0 8.131 4.066 4.066 0 0 0 0-8.13m0 6.705a2.64 2.64 0 1 1 0-5.278 2.64 2.64 0 0 1 0 5.278m4.226-7.815a.95.95 0 1 0 0 1.9.95.95 0 0 0 0-1.9"/></svg>
